public/media/favicon/hz.svg

<svg version="1.1" id="Layer_1" xmlns="http://www.w3.org/2000/svg" xmlns:xlink="http://www.w3.org/1999/xlink" x="0px" y="0px"
	 width="100%" viewBox="0 0 4000 4000" enable-background="new 0 0 4000 4000" xml:space="preserve">
<path fill="#FFFFFF" opacity="1.000000" stroke="none" 
	d="
M2344.000000,4002.000000 
	C1562.666626,4002.000000 782.333313,4002.000000 2.000000,4002.000000 
	C2.000000,2668.666748 2.000000,1335.333374 2.000000,2.000000 
	C1335.333374,2.000000 2668.666748,2.000000 4002.000000,2.000000 
	C4002.000000,1335.333374 4002.000000,2668.666748 4002.000000,4002.000000 
	C3449.666748,4002.000000 2897.333252,4002.000000 2344.000000,4002.000000 
M3633.665527,3435.000000 
	C3633.665527,3374.439941 3633.665527,3313.879883 3633.665527,3252.326172 
	C3499.912842,3252.326172 3367.134277,3252.326172 3234.237305,3252.326172 
	C3234.237305,2425.246582 3234.237305,1599.166016 3234.237305,772.033447 
	C3380.899414,772.033447 3526.993164,772.033447 3673.041016,772.033447 
	C3673.041016,635.848755 3673.041016,500.717285 3673.041016,364.938324 
	C3665.645508,364.025269 3658.772217,362.435913 3651.898193,362.433929 
	C3238.590576,362.315704 2825.282959,362.327026 2411.975342,362.349915 
	C2409.410156,362.350067 2406.845215,362.681641 2404.269287,362.859192 
	C2404.269287,499.589600 2404.269287,635.720154 2404.269287,772.335022 
	C2436.489990,772.335022 2468.109131,772.335022 2499.728271,772.335022 
	C2531.059570,772.335022 2562.391113,772.335022 2593.722412,772.335022 
	C2625.387207,772.335022 2657.051758,772.313477 2688.716553,772.341125 
	C2720.218018,772.368530 2751.723389,772.213989 2783.665283,772.448364 
	C2783.665283,777.483398 2783.665283,781.126465 2783.665283,784.769531 
	C2783.665283,917.761292 2783.588135,1050.753174 2783.844482,1183.744385 
	C2783.860840,1192.323486 2781.339600,1198.713745 2776.034912,1205.259155 
	C2593.120605,1430.970093 2410.366943,1656.811279 2227.573242,1882.619751 
	C2062.777832,2086.194580 1897.965210,2289.755859 1733.155151,2493.318848 
	C1635.653320,2613.746826 1538.138672,2734.164307 1440.653564,2854.605713 
	C1438.684326,2857.038818 1437.007568,2859.708252 1434.045776,2863.888184 
	C1885.031860,2863.888184 2334.052734,2863.888184 2783.159180,2863.888184 
	C2783.159180,2993.851318 2783.159180,3122.686768 2783.159180,3252.510254 
	C2639.856201,3252.510254 2497.055664,3252.510254 2354.290283,3252.510254 
	C2354.290283,3389.634033 2354.290283,3525.767578 2354.290283,3661.597656 
	C2781.003906,3661.597656 3207.089600,3661.597656 3633.665527,3661.597656 
	C3633.665527,3586.240234 3633.665527,3511.620117 3633.665527,3435.000000 
M1998.446899,1661.448608 
	C2124.468506,1498.992798 2250.490234,1336.536987 2377.870605,1172.329712 
	C1961.805420,1172.329712 1548.084229,1172.329712 1134.293701,1172.329712 
	C1134.293701,1038.560791 1134.293701,905.781860 1134.293701,771.925049 
	C1281.010254,771.925049 1427.101440,771.925049 1573.153320,771.925049 
	C1573.153320,634.989197 1573.153320,499.133575 1573.153320,362.910034 
	C1149.854614,362.910034 727.067993,362.910034 304.297302,362.910034 
	C304.297302,499.631134 304.297302,635.769226 304.297302,772.638245 
	C430.549377,772.638245 556.169739,772.637878 681.790100,772.661926 
	C682.048401,772.661987 682.319031,773.007935 682.561401,773.218323 
	C682.812500,773.436218 683.036194,773.685791 683.144165,773.793762 
	C683.144165,1599.798706 683.144165,2425.676025 683.144165,3252.554199 
	C539.817444,3252.554199 397.007935,3252.554199 254.333069,3252.554199 
	C254.333069,3389.696777 254.333069,3525.837646 254.333069,3661.940186 
	C299.680664,3664.337158 1525.108154,3663.123779 1533.093994,3660.770020 
	C1533.093994,3524.857910 1533.093994,3389.006836 1533.093994,3252.155029 
	C1399.739868,3252.155029 1266.955078,3252.155029 1133.665894,3252.155029 
	C1133.665894,3249.536865 1133.679688,3247.919189 1133.663940,3246.302002 
	C1132.421265,3119.096680 1136.053345,2991.870117 1131.791260,2864.672607 
	C1130.921021,2838.701660 1131.792969,2812.675537 1131.564819,2786.677734 
	C1131.515137,2781.015381 1133.123169,2776.642090 1136.619507,2772.172852 
	C1168.399780,2731.547119 1199.966919,2690.754883 1231.583008,2650.000977 
	C1346.323853,2502.096924 1461.060669,2354.189941 1575.795776,2206.281982 
	C1605.982666,2167.366943 1636.151123,2128.437744 1666.340210,2089.524414 
	C1742.235840,1991.695679 1818.139404,1893.873291 1894.038086,1796.046875 
	C1928.554932,1751.557983 1963.067871,1707.066040 1998.446899,1661.448608 
z"/>
<path fill="#000000" opacity="1.000000" stroke="none" 
	d="
M3633.665527,3436.000000 
	C3633.665527,3511.620117 3633.665527,3586.240234 3633.665527,3661.597656 
	C3207.089600,3661.597656 2781.003906,3661.597656 2354.290283,3661.597656 
	C2354.290283,3525.767578 2354.290283,3389.634033 2354.290283,3252.510254 
	C2497.055664,3252.510254 2639.856201,3252.510254 2783.159180,3252.510254 
	C2783.159180,3122.686768 2783.159180,2993.851318 2783.159180,2863.888184 
	C2334.052734,2863.888184 1885.031860,2863.888184 1434.045776,2863.888184 
	C1437.007568,2859.708252 1438.684326,2857.038818 1440.653564,2854.605713 
	C1538.138672,2734.164307 1635.653320,2613.746826 1733.155151,2493.318848 
	C1897.965210,2289.755859 2062.777832,2086.194580 2227.573242,1882.619751 
	C2410.366943,1656.811279 2593.120605,1430.970093 2776.034912,1205.259155 
	C2781.339600,1198.713745 2783.860840,1192.323486 2783.844482,1183.744385 
	C2783.588135,1050.753174 2783.665283,917.761292 2783.665283,784.769531 
	C2783.665283,781.126465 2783.665283,777.483398 2783.665283,772.448364 
	C2751.723389,772.213989 2720.218018,772.368530 2688.716553,772.341125 
	C2657.051758,772.313477 2625.387207,772.335022 2593.722412,772.335022 
	C2562.391113,772.335022 2531.059570,772.335022 2499.728271,772.335022 
	C2468.109131,772.335022 2436.489990,772.335022 2404.269287,772.335022 
	C2404.269287,635.720154 2404.269287,499.589600 2404.269287,362.859192 
	C2406.845215,362.681641 2409.410156,362.350067 2411.975342,362.349915 
	C2825.282959,362.327026 3238.590576,362.315704 3651.898193,362.433929 
	C3658.772217,362.435913 3665.645508,364.025269 3673.041016,364.938324 
	C3673.041016,500.717285 3673.041016,635.848755 3673.041016,772.033447 
	C3526.993164,772.033447 3380.899414,772.033447 3234.237305,772.033447 
	C3234.237305,1599.166016 3234.237305,2425.246582 3234.237305,3252.326172 
	C3367.134277,3252.326172 3499.912842,3252.326172 3633.665527,3252.326172 
	C3633.665527,3313.879883 3633.665527,3374.439941 3633.665527,3436.000000 
z"/>
<path fill="#000000" opacity="1.000000" stroke="none" 
	d="
M1998.014893,1662.012085 
	C1963.067871,1707.066040 1928.554932,1751.557983 1894.038086,1796.046875 
	C1818.139404,1893.873291 1742.235840,1991.695679 1666.340210,2089.524414 
	C1636.151123,2128.437744 1605.982666,2167.366943 1575.795776,2206.281982 
	C1461.060669,2354.189941 1346.323853,2502.096924 1231.583008,2650.000977 
	C1199.966919,2690.754883 1168.399780,2731.547119 1136.619507,2772.172852 
	C1133.123169,2776.642090 1131.515137,2781.015381 1131.564819,2786.677734 
	C1131.792969,2812.675537 1130.921021,2838.701660 1131.791260,2864.672607 
	C1136.053345,2991.870117 1132.421265,3119.096680 1133.663940,3246.302002 
	C1133.679688,3247.919189 1133.665894,3249.536865 1133.665894,3252.155029 
	C1266.955078,3252.155029 1399.739868,3252.155029 1533.093994,3252.155029 
	C1533.093994,3389.006836 1533.093994,3524.857910 1533.093994,3660.770020 
	C1525.108154,3663.123779 299.680664,3664.337158 254.333069,3661.940186 
	C254.333069,3525.837646 254.333069,3389.696777 254.333069,3252.554199 
	C397.007935,3252.554199 539.817444,3252.554199 683.144165,3252.554199 
	C683.144165,2425.676025 683.144165,1599.798706 683.144165,773.793762 
	C683.036194,773.685791 682.812500,773.436218 682.561401,773.218323 
	C682.319031,773.007935 682.048401,772.661987 681.790100,772.661926 
	C556.169739,772.637878 430.549377,772.638245 304.297302,772.638245 
	C304.297302,635.769226 304.297302,499.631134 304.297302,362.910034 
	C727.067993,362.910034 1149.854614,362.910034 1573.153320,362.910034 
	C1573.153320,499.133575 1573.153320,634.989197 1573.153320,771.925049 
	C1427.101440,771.925049 1281.010254,771.925049 1134.293701,771.925049 
	C1134.293701,905.781860 1134.293701,1038.560791 1134.293701,1172.329712 
	C1548.084229,1172.329712 1961.805420,1172.329712 2377.870605,1172.329712 
	C2250.490234,1336.536987 2124.468506,1498.992798 1998.014893,1662.012085 
z"/>
</svg>

<svg enable-background="0 0 4000 4000" version="1.1" viewBox="0 0 4e3 4e3" xml:space="preserve" xmlns="http://www.w3.org/2000/svg">
<path d="m2344 4002h-2342v-4e3h4e3v4e3h-1658m1289.7-567v-182.67h-399.43v-2480.3h438.8v-407.1c-7.3955-0.91306-14.269-2.5024-21.143-2.5044-413.31-0.11822-826.62-0.1069-1239.9-0.084014-2.5652 1.52e-4 -5.1301 0.33173-7.7061 0.50928v409.48h95.459 93.994c31.665 0 63.329-0.021545 94.994 0.006103 31.501 0.027405 63.007-0.12714 94.949 0.10724v12.321c0 132.99-0.077148 265.98 0.1792 398.97 0.016358 8.5791-2.5049 14.969-7.8096 21.515-182.91 225.71-365.67 451.55-548.46 677.36-164.8 203.57-329.61 407.14-494.42 610.7-97.502 120.43-195.02 240.85-292.5 361.29-1.9692 2.4331-3.646 5.1025-6.6078 9.2825h1349.1v388.62h-428.87v409.09h1279.4v-226.6m-1635.2-1773.6c126.02-162.46 252.04-324.91 379.42-489.12h-1243.6v-400.4h438.86v-409.02h-1268.9v409.73c126.25 0 251.87-3.67e-4 377.49 0.023681 0.2583 6.1e-5 0.52893 0.34601 0.7713 0.5564 0.2511 0.2179 0.47479 0.46747 0.58276 0.57544v2478.8h-428.81v409.39c45.348 2.397 1270.8 1.1836 1278.8-1.1702v-408.61h-399.43c0-2.6182 0.013794-4.2358-0.001954-5.853-1.2427-127.21 2.3894-254.43-1.8727-381.63-0.87024-25.971 0.001709-51.997-0.22644-77.995-0.049682-5.6624 1.5584-10.036 5.0547-14.505 31.78-40.626 63.347-81.418 94.964-122.17 114.74-147.9 229.48-295.81 344.21-443.72 30.187-38.915 60.355-77.844 90.544-116.76 75.896-97.829 151.8-195.65 227.7-293.48 34.517-44.489 69.03-88.981 104.41-134.6z" fill="#fff"/>
<path d="m3633.7 3436v225.6h-1279.4v-409.09h428.87v-388.62h-1349.1c2.9618-4.1799 4.6386-6.8494 6.6078-9.2825 97.485-120.44 195-240.86 292.5-361.29 164.81-203.56 329.62-407.12 494.42-610.7 182.79-225.81 365.55-451.65 548.46-677.36 5.3047-6.5454 7.8259-12.936 7.8096-21.515-0.25635-132.99-0.1792-265.98-0.1792-398.97v-12.321c-31.942-0.23438-63.447-0.079834-94.949-0.10724-31.665-0.027648-63.329-0.006103-94.994-0.006103h-93.994-95.459v-409.48c2.5759-0.17755 5.1409-0.50912 7.7061-0.50928 413.31-0.022889 826.62-0.034211 1239.9 0.084014 6.874 0.001984 13.747 1.5913 21.143 2.5044v407.1h-438.8v2480.3h399.43v183.67z"/>
<path d="m1998 1662c-34.947 45.054-69.46 89.546-103.98 134.03-75.899 97.826-151.8 195.65-227.7 293.48-30.189 38.913-60.358 77.843-90.544 116.76-114.74 147.91-229.47 295.81-344.21 443.72-31.616 40.754-63.183 81.546-94.964 122.17-3.4963 4.4692-5.1044 8.8425-5.0547 14.505 0.22815 25.998-0.6438 52.024 0.22644 77.995 4.2621 127.2 0.63 254.42 1.8727 381.63 0.015748 1.6172 0.001954 3.2349 0.001954 5.853h399.43v408.61c-7.9858 2.3538-1233.4 3.5671-1278.8 1.1702v-409.39h428.81v-2478.8c-0.10797-0.10797-0.33166-0.35754-0.58276-0.57544-0.24237-0.21039-0.513-0.55634-0.7713-0.5564-125.62-0.024048-251.24-0.023681-377.49-0.023681v-409.73h1268.9v409.02h-438.86v400.4h1243.6c-127.38 164.21-253.4 326.66-379.86 489.68z"/>
</svg>
